X:090
T:New Drury TS.090
M:C|
L:1/8
Q:1/2=90
S:Thomas Sands’ MS,1810,Lincolnshire
R:reel
O:England;Lincolnshire
Z:vmp.Ruairidh Greig, 2011
K:A
E|(Ac)(ec) (Ad)(fd)|ecBc AGFE|(Ac)(ec) (Ad)(fd)|edca “tr”B3E|
(Ac)(ec) (Ad)(fd)|ecBA GBGE|Acea gafd|ecBcA3:|
|:E|CEA,E CEA,E|(Ac)(Bc) AGFE|CEA,E CEA,E|(Ac)(ec) “tr”B3E|
CEA,E CEA,E|(Ac)(Bc) AGFE|FDCB, CDEc|dBAG [A3E3A,3]:|]

